X:623
T: "Fischerliedchen"
N: Z1303
O: Europa, Mitteleuropa, Deutschland, Ruegen
R: Handwerker -, Bauern - Lied
M: 3/4
L: 1/8
K: G
 |  |  | G2D2EF | G2D2EF | G2D2G2 | ABG2
B2 | dcB2B2 | cBB2A2 | BAG2G2 | AGF2F2 |
G2D2EF | G2D2EF | G2G2A2 | ABG2z2

@@@ Tune index: 10381
